X: 12409
T: Far Away
R: waltz
M: 3/4
K: Bminor
FA|B2 BA (3Bcd|cA F2 FA|B2 BF Be|c4 dc|
B2 BA (3Bcd|cB A2 de|fe dc BA|B3 A FA|
B2 BF (3Bcd|cA F2 FA|B2 BA (3Bcd|c4 dc|
B2 BA (3Bcd|cB A2 de|fe dc BA|B3 c de|
f2 fe (3fga|ec A2 de|f2 fe (3fga|e4 de|
fd Be cA|dB Gd BG|F2 B2 ^A2|B3 c de|
f2 fe (3fga|ec A2 de|f2 fe (3fga|e4 de|
fd Be cA|dB Gd BG|F2 B2 ^A2|B3 A FA||

